X: 22
I: linebreak $
T: Talbott
T: for two
C: 
N: 
N: Drone: F/C
K: C major
M: 6/8
L: 1/8
"^Intro?"c2c A2A | G2A FE2 | E6 |: 
P: A (3x)
c2c A2A | G2A FE2 | D2D D3 | 
F2F D2D | G2F ED2 | C6 "^(3)":| 
M: 3/4
P: B
F2F2F2 | F2F2F2 | F2F2F2 | F2F2F2 | G2G2G2 | A6 || 
P: C
F2F2F2 | A2A2A2 | _B2A2A2 | G6 | A2A2A2 | c2c2c2 | 
f2f2f2 | e2e4 | c6 | d2d2d2 | d2d2d2 | 
M: 9/8
ddd c2A cdd | 
M: 6/8
c6 |] 

